svgs/sharp-solid/columns-3.svg

<svg xmlns="http://www.w3.org/2000/svg" viewBox="0 0 640 512"><!--! Font Awesome Pro 6.6.0 by @fontawesome - https://fontawesome.com License - https://fontawesome.com/license (Commercial License) Copyright 2024 Fonticons, Inc. --><path d="M640 32L0 32 0 480l640 0 0-448zM192 96l0 320L64 416 64 96l128 0zm64 0l128 0 0 320-128 0 0-320zm320 0l0 320-128 0 0-320 128 0z"/></svg>

<svg xmlns="http://www.w3.org/2000/svg" viewBox="0 0 640 512"><!--! Font Awesome Pro 6.4.0 by @fontawesome - https://fontawesome.com License - https://fontawesome.com/license (Commercial License) Copyright 2023 Fonticons, Inc. --><path d="M640 32H0V480H640V32zM192 96V416H64V96H192zm64 0H384V416H256V96zm320 0V416H448V96H576z"/></svg>
